!!! OTL: Berkowitz54
!!! Chapter: 1
!!! Section: I
!!! Page: 16
!!! Mode: 
!!! Encoder: DJB
**kern
*staff1
*I"Piano
=1-
*clefC3
*k[b-e-a-d-]
*A-:
*M2/4
8a-\L
8a-\J
8a-\L
8g\J
=2
8f\L
8f\J
8f\L
8e-\J
=3
8d-\L
8d-\J
8d-\L
8c\J
=4
4.B-/
8c\
=5
8d-\L
8d-\J
8d-\L
8e-\J
=6
8f\L
8f\J
8f\L
8g\J
=7
8a-\L
8a-\J
8a-\L
8b-\J
=8
4.cc\
8e-\
=9
8a-\L
8a-\J
8a-\L
8g\J
=10
!!linebreak:original
8f\L
8f\J
8f\L
8e-\J
=11
8d-\L
8d-\J
8d-\L
8c\J
=12
4B-/
8c\L
8d-\J
=13
8e-\L
8f\J
8e-\L
8c\J
=14
8d-\L
8c\J
8B-/L
8A-/J
=15
4B-/
4c\
=16
2A-/
==
*-
